X: 1
T: Cliffs of Moher
M: 6/8
L: 1/8
R: Jig
K: ADor
d | eaa bag | eaf ged | c2A BAG | EFG ABd | eaa bag | eaf ged | c2A BAG | EFG A2 :|
d | e2e dBA | e2e dBA | GAB dBA | GAB dBd | e2e dBA | e2e dBA | GAB dBG | EFG A2 ||
d | e2e dBA | e2e dBA | GAB dBA | GAB dBd | e2e dee | cee Bee | EFG BAG | edB A2 |]
